art/logos/windows_installers.svg

<svg xmlns="http://www.w3.org/2000/svg" viewBox="0 0 1703 360"><g fill="#f9f9f9"><path d="M0 0h170.31l-.07 169.97a.5.5 0 0 1-.5.5L0 170.33zM189.42 0h170.39l-.04 170.12a.38.37-90 0 1-.37.38H189.7a.45.45 0 0 1-.45-.45zM1131.5 268.1q-.01-1.84-1.04-.31c-13.32 19.77-37.58 24.53-60.23 21.71-31.71-3.95-48.87-28.3-52.63-58.26-6.51-51.82 14.82-105.08 76.4-101.21 14.11.89 28.45 6.25 36.82 18.43a.37.37 0 0 0 .68-.21V59.84a.6.59-89.5 0 1 .6-.6l35.4.02a.5.49 0 0 1 .5.49V286.5a.5.5 0 0 1-.5.5H1132a.5.5 0 0 1-.5-.5zm-51.9-8.15q8.21 3.05 17.48 1.98c22.88-2.63 34.38-25.82 34.59-46.43.18-16.72 1.36-30.55-9.06-43.17-14.13-17.11-42.84-18.25-57.05.48q-6.15 8.11-8.77 19.19c-5.49 23.18-3.76 58.09 22.81 67.95"/><ellipse rx="21.6" ry="20.54" transform="rotate(-.2 25675.342 -228757.754)"/><path d="m617.43 122.79-43.44 163.6a.82.82 0 0 1-.79.61h-44.15a.67.66-9.1 0 1-.63-.45q-1.16-3.37-2.08-6.71-28.63-103.24-57.3-206.46a.5.49-7.9 0 1 .48-.63h39.15a.56.56 0 0 1 .54.42l42.52 168.89q.16.62.43.04.46-1.01 1.11-3.35 22.79-82.76 45.51-165.55a.61.6-82.4 0 1 .58-.45h39.89a.46.45 82.5 0 1 .44.34Q659.6 150.63 679.48 228q2.88 11.22 4.17 15.25.15.46.26-.01l40.35-169.83a.86.85-83.1 0 1 .83-.66h37.69a.4.4 0 0 1 .39.51l-57.76 213.23a.7.69 7.7 0 1-.67.51h-43.43a.62.62 0 0 1-.6-.46l-43.02-163.75q-.13-.48-.26 0M1244.83 288.19c-43.58-11.26-55.62-53.85-50.19-93.51 6.65-48.53 45.46-68.41 90.8-64.67 55.74 4.6 75.24 56.28 64.07 104.46-11.51 49.62-59.81 65.33-104.68 53.72m-.74-38.28c13.26 13.38 38.18 15.71 53.6 4.55 16.5-11.93 18.42-37.42 16.3-55.83-2.35-20.56-13.92-36.82-35.47-38.42-28.38-2.12-43.49 14.94-46.68 40.76-1.99 16.11.2 36.79 12.25 48.94M1703 241.56v4.75c-1.91 23.11-15.76 35.97-36.67 42.03-21.89 6.34-43.92 3.35-65.39-3.89a1.75 1.75 0 0 1-1.19-1.66v-34.8a.28.28 0 0 1 .45-.22c10.73 8.25 23.71 13.87 37.18 14.92 9.27.73 25.22.57 28.41-10.94 4.22-15.22-10.43-21.23-22.09-26.26-20.15-8.71-39.09-16.26-43.58-40.82-5.87-32.09 20.44-52.44 49.57-54.76 14.73-1.17 29.51-.39 43.56 4.75a1.89 1.87-80 0 1 1.23 1.77l.06 33.02a.41.41 0 0 1-.63.34q-14.51-9.54-31.66-11.77c-11.23-1.45-28.36 3.29-25.93 18.22 2.28 13.95 23.99 20.32 35.25 25.34q12.34 5.51 19.97 12.86c8.43 8.11 9.98 15.97 11.46 27.12M888.23 153.97a.37.37 0 0 0 .69.2c8.76-13.66 20.99-20.66 37.11-23.31q13.71-2.25 26.49.13c27.79 5.15 37.37 28.37 37.95 53.83.89 39.18.25 68.57.36 101.61a.57.57 0 0 1-.57.57h-35.24a.52.52 0 0 1-.52-.52q0-44.62-.06-89.23c-.02-17.29-6.13-35.73-26.17-37.91-23.71-2.58-40.09 18.55-40.18 40.97q-.17 43.04-.04 86.08a.62.61-90 0 1-.61.62l-34.1-.02a.59.59 0 0 1-.59-.59V133.14a.61.6 0 0 1 .61-.6l33.6-.03a1.19 1.19 0 0 1 1.19 1.19z"/><rect width="36" height="154.46" x="780.25" y="132.54" rx=".67"/><path d="M1425.79 250.89q.46 2.19 1.07.04l33.64-117.29a.88.88 0 0 1 .85-.64h34a.83.83 0 0 1 .8.62l29.72 116.15q.68 2.68 1.33-.01l27.91-116.25a.68.67-82.8 0 1 .65-.51h33.45a.56.56 0 0 1 .53.76q-.89 2.38-1.55 4.68-21.25 74-42.54 148.07a.68.68 0 0 1-.65.49h-38.33a1.19 1.19 0 0 1-1.15-.88l-29.47-108.43q-.69-2.51-1.41-.01l-31.67 108.8a.74.74 0 0 1-.71.52h-37.64a.44.44 0 0 1-.42-.32q-21.15-72.28-42.19-144.54c-.66-2.26-1.9-5.68-2.41-8.64a.43.42-5.1 0 1 .42-.5h36.67a.45.43-6.6 0 1 .43.33q13.66 56.12 27.45 112.26.8 3.27 1.22 5.3M170.19 360H0V189.44l169.78.04a.66.66 0 0 1 .64.82q-.29 1.16-.29 2.7.18 83.5.06 167M359.69 360H189.44l-.13-169.96a.51.51 0 0 1 .51-.51q79.88-.06 159.78-.02c2.24 0 6.37-.31 9.63 0a.55.54-87.8 0 1 .5.55zM1112 336.7c-6.24-.18-11.05-5.18-11.35-11.14-.54-10.72.31-19.75 13.88-19.78q24.77-.07 50.21-.02a1.78 1.78 0 0 1 1.77 1.79l-.03 7.65a1.05 1.04 0 0 1-1.05 1.04l-46.93.02c-6.07 0-5.84 11.36-.36 11.29q21.92-.29 37.85.21c6.07.19 11.08 3.56 12.28 9.76 1.95 10.14.63 21.23-12.55 21.57q-22.22.57-52.92.32c-3.51-.03-2.33-6.82-2.23-9.17a1.56 1.56 0 0 1 1.56-1.49h49.12c4.76 0 5.9-11.8-1-11.72q-19.13.22-38.25-.33"/><rect width="13.74" height="53.7" x="986.77" y="305.75" rx="1.68"/><path d="M1026.55 317.07a.57.57 0 0 0-.3.5v40.99a.55.54-3.6 0 1-.48.54q-5.9.77-11.78.13a1.37 1.36-87 0 1-1.22-1.36q-.06-21.56.01-43.61c.02-4.65.83-7.84 5.9-8.26 4.05-.34 15.04-1.84 19.26 2.8q17.56 19.32 35.59 39.31a1.27 1.27 0 0 0 2.22-.85l.01-39.74a1.78 1.78 0 0 1 1.78-1.78l10.75.02a.95.95 0 0 1 .95.95q.02 23.09 0 46.54c0 7.92-11.12 6.19-16.24 6.17-5.31-.01-7.3-1.32-10.94-5.38q-16.4-18.29-32.79-36.54-1.14-1.27-2.72-.43M1205.15 316.55l-28.9-.07a.62.62 0 0 1-.61-.51q-.88-4.85-.03-9.71a.62.61-84.9 0 1 .6-.51h72.55a1.5 1.5 0 0 1 1.5 1.5l-.02 8.22a1.02 1.02 0 0 1-1.02 1.02l-28.98.01a.52.52 0 0 0-.51.51l-.08 41.49a.9.9 0 0 1-.9.9l-11.98.02a1.02 1.02 0 0 1-1.02-1.02v-41.25a.6.6 0 0 0-.6-.6M1242 359.11a.4.4 0 0 1-.29-.61q15.41-24.06 31.05-48.23c3.21-4.97 8.51-4.75 14.48-4.46 5.14.24 7.26 1.59 10.16 6.03q14.37 21.93 28.6 43.92.92 1.42 1.37 3.03a.5.49-7.6 0 1-.48.62l-13.24-.05a1.02 1.02 0 0 1-.86-.47l-6.22-9.67a.98.96-16.1 0 0-.79-.43l-41.73-.24a.98.97-73.4 0 0-.82.45l-6.13 9.62a1.2 1.18-76.6 0 1-.88.55q-7.11.75-14.22-.06m27.96-19.37 29.67.01a.46.46 0 0 0 .39-.71l-14.29-22.28a.96.95 52.6 0 0-1.44-.2q-1 .89-1.89 2.31-6.42 10.1-12.85 20.13a.48.48 0 0 0 .41.74M1346.58 358.63c-13.5-1.55-15.11-10.68-15.26-22.09q-.19-14.88-.02-29.82a.99.98.3 0 1 .99-.97h11.19a1.57 1.56.4 0 1 1.57 1.58q-.18 16.05.07 31.76c.11 6.95 3.49 9.45 9.99 9.41q19.95-.1 39.91.14a.69.68-89.6 0 1 .67.69l.02 9.19a.76.75-.8 0 1-.74.75c-15.83.39-32.7 1.16-48.39-.64M1430.75 359.49c-13.32-.06-27.97-.93-28.16-18.51q-.19-17.04-.06-33.97a1.25 1.25 0 0 1 1.25-1.24l10.99-.03a1.52 1.52 0 0 1 1.53 1.54q-.19 16.17.11 31.12c.14 7.24 2.96 10.11 10 10.09q19.91-.08 39.84.15a.61.6 84.8 0 1 .59.5q.67 3.57.31 8.12c-.2 2.53-1.73 2.16-4.03 2.18q-16.19.12-32.37.05M1504.25 359.5c-11.04-.04-27.5.23-29.15-14.83q-1.59-14.42-.08-23.95c1.99-12.47 12.42-14.91 23.33-14.94q21.23-.06 42.54-.02a1.11 1.1 90 0 1 1.1 1.11l-.01 8.08a1.3 1.29 0 0 1-1.3 1.29c-14.58.02-29.56-.53-44.31.34-5.93.35-9.04 4.54-7.93 10.55a.46.46 0 0 0 .45.38l51.99.14a.6.6 0 0 1 .6.6l.03 7.46a1.27 1.27 0 0 1-1.27 1.28l-51.21.01a.57.57 0 0 0-.56.48c-1.76 10 4.72 11.27 12.9 11.27h39.14a1.46 1.45 89.8 0 1 1.45 1.45l.02 7.72a1.51 1.51 0 0 1-1.5 1.52q-18.57.12-36.23.06M1566.25 343v15.05a1.21 1.2 87.4 0 1-1.09 1.2q-5.03.48-10.35.14-2.36-.15-2.37-2.14-.19-24.5-.19-49c0-2.06 1.87-2.5 3.68-2.5h48.65c15.95 0 20.28 8.11 18.41 23.09-.9 7.19-5.28 11.45-12.43 12.06a.47.47 0 0 0-.3.79l15.48 16.35a.69.69 0 0 1-.45 1.16c-3.1.24-13.4 1.29-15.51-.99q-7-7.57-13.77-15.32a1.14 1.1-20.1 0 0-.84-.37l-28.41-.03a.51.51 0 0 0-.51.51m42.25-13.08c2.04-3.6 1.55-13.62-4.81-13.64q-18.46-.06-36.93-.01a.51.51 0 0 0-.51.51v15.94a.51.5.6 0 0 .5.5q17.76.1 35.48-.07 4.46-.04 6.27-3.23M1636.44 333.56c-4.69-3.75-3.94-9.9-3.97-15.14-.04-7.67 5.65-12.5 13.23-12.56q25.8-.22 51.7-.07a1.09 1.09 0 0 1 1.09 1.09l-.01 8.07a1.3 1.3 0 0 1-1.3 1.3q-22.85 0-46.18.01c-6.5 0-6.47 11.23-.25 11.29q16.96.16 33.91.23c6.77.03 11.95.96 14.95 6.97 1.64 3.29 1.89 13.86.19 17.32q-3.39 6.89-12.06 7.09-26.44.59-53.64.24a1.62 1.62 0 0 1-1.6-1.62v-7.57a1.46 1.46 0 0 1 1.46-1.46q25.15.01 50.23-.01c3.44-.01 4.76-11.73-1.25-11.73q-15.47.02-30.94-.05c-6.7-.03-11.13.15-15.56-3.4"/></g></svg>

<?xml version="1.0" encoding="UTF-8" standalone="no"?>
<!DOCTYPE svg PUBLIC "-//W3C//DTD SVG 1.1//EN" "http://www.w3.org/Graphics/SVG/1.1/DTD/svg11.dtd">
<svg xmlns="http://www.w3.org/2000/svg" version="1.1" viewBox="0 0 1703 360">
<g fill="#f9f9f9">
<path d="
  M 0.00 0.00
  L 170.31 0.00
  L 170.24 169.97
  A 0.50 0.50 0.0 0 1 169.74 170.47
  L 0.00 170.33
  L 0.00 0.00
  Z"
/>
<path d="
  M 189.42 0.00
  L 359.81 0.00
  L 359.77 170.12
  A 0.38 0.37 -90.0 0 1 359.40 170.50
  L 189.70 170.50
  A 0.45 0.45 0.0 0 1 189.25 170.05
  L 189.42 0.00
  Z"
/>
<path d="
  M 1131.50 268.10
  Q 1131.49 266.26 1130.46 267.79
  C 1117.14 287.56 1092.88 292.32 1070.23 289.50
  C 1038.52 285.55 1021.36 261.20 1017.60 231.24
  C 1011.09 179.42 1032.42 126.16 1094.00 130.03
  C 1108.11 130.92 1122.45 136.28 1130.82 148.46
  A 0.37 0.37 0.0 0 0 1131.50 148.25
  L 1131.50 59.84
  A 0.60 0.59 -89.5 0 1 1132.10 59.24
  L 1167.50 59.26
  A 0.50 0.49 0.0 0 1 1168.00 59.75
  L 1168.00 286.50
  A 0.50 0.50 0.0 0 1 1167.50 287.00
  L 1132.00 287.00
  A 0.50 0.50 0.0 0 1 1131.50 286.50
  L 1131.50 268.10
  Z
  M 1079.60 259.95
  Q 1087.81 263.00 1097.08 261.93
  C 1119.96 259.30 1131.46 236.11 1131.67 215.50
  C 1131.85 198.78 1133.03 184.95 1122.61 172.33
  C 1108.48 155.22 1079.77 154.08 1065.56 172.81
  Q 1059.41 180.92 1056.79 192.00
  C 1051.30 215.18 1053.03 250.09 1079.60 259.95
  Z"
/>
<ellipse cx="0.00" cy="0.00" transform="translate(798.67,88.23) rotate(-0.2)" rx="21.60" ry="20.54"/>
<path d="
  M 617.43 122.79
  L 573.99 286.39
  A 0.82 0.82 0.0 0 1 573.20 287.00
  L 529.05 287.00
  A 0.67 0.66 -9.1 0 1 528.42 286.55
  Q 527.26 283.18 526.34 279.84
  Q 497.71 176.60 469.04 73.38
  A 0.50 0.49 -7.9 0 1 469.52 72.75
  L 508.67 72.75
  A 0.56 0.56 0.0 0 1 509.21 73.17
  L 551.73 242.06
  Q 551.89 242.68 552.16 242.10
  Q 552.62 241.09 553.27 238.75
  Q 576.06 155.99 598.78 73.20
  A 0.61 0.60 -82.4 0 1 599.36 72.75
  L 639.25 72.75
  A 0.46 0.45 82.5 0 1 639.69 73.09
  Q 659.60 150.63 679.48 228.00
  Q 682.36 239.22 683.65 243.25
  Q 683.80 243.71 683.91 243.24
  L 724.26 73.41
  A 0.86 0.85 -83.1 0 1 725.09 72.75
  L 762.78 72.75
  A 0.40 0.40 0.0 0 1 763.17 73.26
  L 705.41 286.49
  A 0.70 0.69 7.7 0 1 704.74 287.00
  L 661.31 287.00
  A 0.62 0.62 0.0 0 1 660.71 286.54
  L 617.69 122.79
  Q 617.56 122.31 617.43 122.79
  Z"
/>
<path d="
  M 1244.83 288.19
  C 1201.25 276.93 1189.21 234.34 1194.64 194.68
  C 1201.29 146.15 1240.10 126.27 1285.44 130.01
  C 1341.18 134.61 1360.68 186.29 1349.51 234.47
  C 1338.00 284.09 1289.70 299.80 1244.83 288.19
  Z
  M 1244.09 249.91
  C 1257.35 263.29 1282.27 265.62 1297.69 254.46
  C 1314.19 242.53 1316.11 217.04 1313.99 198.63
  C 1311.64 178.07 1300.07 161.81 1278.52 160.21
  C 1250.14 158.09 1235.03 175.15 1231.84 200.97
  C 1229.85 217.08 1232.04 237.76 1244.09 249.91
  Z"
/>
<path d="
  M 1703.00 241.56
  L 1703.00 246.31
  C 1701.09 269.42 1687.24 282.28 1666.33 288.34
  C 1644.44 294.68 1622.41 291.69 1600.94 284.45
  A 1.75 1.75 0.0 0 1 1599.75 282.79
  L 1599.75 247.99
  A 0.28 0.28 0.0 0 1 1600.20 247.77
  C 1610.93 256.02 1623.91 261.64 1637.38 262.69
  C 1646.65 263.42 1662.60 263.26 1665.79 251.75
  C 1670.01 236.53 1655.36 230.52 1643.70 225.49
  C 1623.55 216.78 1604.61 209.23 1600.12 184.67
  C 1594.25 152.58 1620.56 132.23 1649.69 129.91
  C 1664.42 128.74 1679.20 129.52 1693.25 134.66
  A 1.89 1.87 -80.0 0 1 1694.48 136.43
  L 1694.54 169.45
  A 0.41 0.41 0.0 0 1 1693.91 169.79
  Q 1679.40 160.25 1662.25 158.02
  C 1651.02 156.57 1633.89 161.31 1636.32 176.24
  C 1638.60 190.19 1660.31 196.56 1671.57 201.58
  Q 1683.91 207.09 1691.54 214.44
  C 1699.97 222.55 1701.52 230.41 1703.00 241.56
  Z"
/>
<path d="
  M 888.23 153.97
  A 0.37 0.37 0.0 0 0 888.92 154.17
  C 897.68 140.51 909.91 133.51 926.03 130.86
  Q 939.74 128.61 952.52 130.99
  C 980.31 136.14 989.89 159.36 990.47 184.82
  C 991.36 224.00 990.72 253.39 990.83 286.43
  A 0.57 0.57 0.0 0 1 990.26 287.00
  L 955.02 287.00
  A 0.52 0.52 0.0 0 1 954.50 286.48
  Q 954.50 241.86 954.44 197.25
  C 954.42 179.96 948.31 161.52 928.27 159.34
  C 904.56 156.76 888.18 177.89 888.09 200.31
  Q 887.92 243.35 888.05 286.39
  A 0.62 0.61 -90.0 0 1 887.44 287.01
  L 853.34 286.99
  A 0.59 0.59 0.0 0 1 852.75 286.40
  L 852.75 133.14
  A 0.61 0.60 -0.0 0 1 853.36 132.54
  L 886.96 132.51
  A 1.19 1.19 0.0 0 1 888.15 133.70
  L 888.23 153.97
  Z"
/>
<rect x="780.25" y="132.54" width="36.00" height="154.46" rx="0.67"/>
<path d="
  M 1425.79 250.89
  Q 1426.25 253.08 1426.86 250.93
  L 1460.50 133.64
  A 0.88 0.88 0.0 0 1 1461.35 133.00
  L 1495.35 133.00
  A 0.83 0.83 0.0 0 1 1496.15 133.62
  L 1525.87 249.77
  Q 1526.55 252.45 1527.20 249.76
  L 1555.11 133.51
  A 0.68 0.67 -82.8 0 1 1555.76 133.00
  L 1589.21 133.00
  A 0.56 0.56 0.0 0 1 1589.74 133.76
  Q 1588.85 136.14 1588.19 138.44
  Q 1566.94 212.44 1545.65 286.51
  A 0.68 0.68 0.0 0 1 1545.00 287.00
  L 1506.67 287.00
  A 1.19 1.19 0.0 0 1 1505.52 286.12
  L 1476.05 177.69
  Q 1475.36 175.18 1474.64 177.68
  L 1442.97 286.48
  A 0.74 0.74 0.0 0 1 1442.26 287.00
  L 1404.62 287.00
  A 0.44 0.44 0.0 0 1 1404.20 286.68
  Q 1383.05 214.40 1362.01 142.14
  C 1361.35 139.88 1360.11 136.46 1359.60 133.50
  A 0.43 0.42 -5.1 0 1 1360.02 133.00
  L 1396.69 133.00
  A 0.45 0.43 -6.6 0 1 1397.12 133.33
  Q 1410.78 189.45 1424.57 245.59
  Q 1425.37 248.86 1425.79 250.89
  Z"
/>
<path d="
  M 170.19 360.00
  L 0.00 360.00
  L 0.00 189.44
  L 169.78 189.48
  A 0.66 0.66 0.0 0 1 170.42 190.30
  Q 170.13 191.46 170.13 193.00
  Q 170.31 276.50 170.19 360.00
  Z"
/>
<path d="
  M 359.69 360.00
  L 189.44 360.00
  L 189.31 190.04
  A 0.51 0.51 0.0 0 1 189.82 189.53
  Q 269.70 189.47 349.60 189.51
  C 351.84 189.51 355.97 189.20 359.23 189.51
  A 0.55 0.54 -87.8 0 1 359.73 190.06
  L 359.69 360.00
  Z"
/>
<path d="
  M 1112.00 336.70
  C 1105.76 336.52 1100.95 331.52 1100.65 325.56
  C 1100.11 314.84 1100.96 305.81 1114.53 305.78
  Q 1139.30 305.71 1164.74 305.76
  A 1.78 1.78 0.0 0 1 1166.51 307.55
  L 1166.48 315.20
  A 1.05 1.04 -0.0 0 1 1165.43 316.24
  Q 1141.96 316.25 1118.50 316.26
  C 1112.43 316.26 1112.66 327.62 1118.14 327.55
  Q 1140.06 327.26 1155.99 327.76
  C 1162.06 327.95 1167.07 331.32 1168.27 337.52
  C 1170.22 347.66 1168.90 358.75 1155.72 359.09
  Q 1133.50 359.66 1102.80 359.41
  C 1099.29 359.38 1100.47 352.59 1100.57 350.24
  A 1.56 1.56 0.0 0 1 1102.13 348.75
  Q 1127.00 348.75 1151.25 348.75
  C 1156.01 348.75 1157.15 336.95 1150.25 337.03
  Q 1131.12 337.25 1112.00 336.70
  Z"
/>
<rect x="986.77" y="305.75" width="13.74" height="53.70" rx="1.68"/>
<path d="
  M 1026.55 317.07
  A 0.57 0.57 0.0 0 0 1026.25 317.57
  L 1026.25 358.56
  A 0.55 0.54 -3.6 0 1 1025.77 359.10
  Q 1019.87 359.87 1013.99 359.23
  A 1.37 1.36 -87.0 0 1 1012.77 357.87
  Q 1012.71 336.31 1012.78 314.26
  C 1012.80 309.61 1013.61 306.42 1018.68 306.00
  C 1022.73 305.66 1033.72 304.16 1037.94 308.80
  Q 1055.50 328.12 1073.53 348.11
  A 1.27 1.27 0.0 0 0 1075.75 347.26
  L 1075.76 307.52
  A 1.78 1.78 0.0 0 1 1077.54 305.74
  L 1088.29 305.76
  A 0.95 0.95 0.0 0 1 1089.24 306.71
  Q 1089.26 329.80 1089.24 353.25
  C 1089.24 361.17 1078.12 359.44 1073.00 359.42
  C 1067.69 359.41 1065.70 358.10 1062.06 354.04
  Q 1045.66 335.75 1029.27 317.50
  Q 1028.13 316.23 1026.55 317.07
  Z"
/>
<path d="
  M 1205.15 316.55
  L 1176.25 316.48
  A 0.62 0.62 0.0 0 1 1175.64 315.97
  Q 1174.76 311.12 1175.61 306.26
  A 0.62 0.61 -84.9 0 1 1176.21 305.75
  L 1248.76 305.75
  A 1.50 1.50 0.0 0 1 1250.26 307.25
  L 1250.24 315.47
  A 1.02 1.02 0.0 0 1 1249.22 316.49
  L 1220.24 316.50
  A 0.52 0.52 0.0 0 0 1219.73 317.01
  L 1219.65 358.50
  A 0.90 0.90 0.0 0 1 1218.75 359.40
  L 1206.77 359.42
  A 1.02 1.02 0.0 0 1 1205.75 358.40
  L 1205.75 317.15
  A 0.60 0.60 0.0 0 0 1205.15 316.55
  Z"
/>
<path d="
  M 1242.00 359.11
  A 0.40 0.40 0.0 0 1 1241.71 358.50
  Q 1257.12 334.44 1272.76 310.27
  C 1275.97 305.30 1281.27 305.52 1287.24 305.81
  C 1292.38 306.05 1294.50 307.40 1297.40 311.84
  Q 1311.77 333.77 1326.00 355.76
  Q 1326.92 357.18 1327.37 358.79
  A 0.50 0.49 -7.6 0 1 1326.89 359.41
  L 1313.65 359.36
  A 1.02 1.02 0.0 0 1 1312.79 358.89
  L 1306.57 349.22
  A 0.98 0.96 -16.1 0 0 1305.78 348.79
  L 1264.05 348.55
  A 0.98 0.97 -73.4 0 0 1263.23 349.00
  L 1257.10 358.62
  A 1.20 1.18 -76.6 0 1 1256.22 359.17
  Q 1249.11 359.92 1242.00 359.11
  Z
  M 1269.96 339.74
  L 1299.63 339.75
  A 0.46 0.46 0.0 0 0 1300.02 339.04
  L 1285.73 316.76
  A 0.96 0.95 52.6 0 0 1284.29 316.56
  Q 1283.29 317.45 1282.40 318.87
  Q 1275.98 328.97 1269.55 339.00
  A 0.48 0.48 0.0 0 0 1269.96 339.74
  Z"
/>
<path d="
  M 1346.58 358.63
  C 1333.08 357.08 1331.47 347.95 1331.32 336.54
  Q 1331.13 321.66 1331.30 306.72
  A 0.99 0.98 0.3 0 1 1332.29 305.75
  L 1343.48 305.75
  A 1.57 1.56 0.4 0 1 1345.05 307.33
  Q 1344.87 323.38 1345.12 339.09
  C 1345.23 346.04 1348.61 348.54 1355.11 348.50
  Q 1375.06 348.40 1395.02 348.64
  A 0.69 0.68 -89.6 0 1 1395.69 349.33
  L 1395.71 358.52
  A 0.76 0.75 -0.8 0 1 1394.97 359.27
  C 1379.14 359.66 1362.27 360.43 1346.58 358.63
  Z"
/>
<path d="
  M 1430.75 359.49
  C 1417.43 359.43 1402.78 358.56 1402.59 340.98
  Q 1402.40 323.94 1402.53 307.01
  A 1.25 1.25 0.0 0 1 1403.78 305.77
  L 1414.77 305.74
  A 1.52 1.52 0.0 0 1 1416.30 307.28
  Q 1416.11 323.45 1416.41 338.40
  C 1416.55 345.64 1419.37 348.51 1426.41 348.49
  Q 1446.32 348.41 1466.25 348.64
  A 0.61 0.60 84.8 0 1 1466.84 349.14
  Q 1467.51 352.71 1467.15 357.26
  C 1466.95 359.79 1465.42 359.42 1463.12 359.44
  Q 1446.93 359.56 1430.75 359.49
  Z"
/>
<path d="
  M 1504.25 359.50
  C 1493.21 359.46 1476.75 359.73 1475.10 344.67
  Q 1473.51 330.25 1475.02 320.72
  C 1477.01 308.25 1487.44 305.81 1498.35 305.78
  Q 1519.58 305.72 1540.89 305.76
  A 1.11 1.10 90.0 0 1 1541.99 306.87
  L 1541.98 314.95
  A 1.30 1.29 0.0 0 1 1540.68 316.24
  C 1526.10 316.26 1511.12 315.71 1496.37 316.58
  C 1490.44 316.93 1487.33 321.12 1488.44 327.13
  A 0.46 0.46 0.0 0 0 1488.89 327.51
  L 1540.88 327.65
  A 0.60 0.60 0.0 0 1 1541.48 328.25
  L 1541.51 335.71
  A 1.27 1.27 0.0 0 1 1540.24 336.99
  L 1489.03 337.00
  A 0.57 0.57 0.0 0 0 1488.47 337.48
  C 1486.71 347.48 1493.19 348.75 1501.37 348.75
  Q 1521.06 348.75 1540.51 348.75
  A 1.46 1.45 89.8 0 1 1541.96 350.20
  L 1541.98 357.92
  A 1.51 1.51 0.0 0 1 1540.48 359.44
  Q 1521.91 359.56 1504.25 359.50
  Z"
/>
<path d="
  M 1566.25 343.00
  L 1566.25 358.05
  A 1.21 1.20 87.4 0 1 1565.16 359.25
  Q 1560.13 359.73 1554.81 359.39
  Q 1552.45 359.24 1552.44 357.25
  Q 1552.25 332.75 1552.25 308.25
  C 1552.25 306.19 1554.12 305.75 1555.93 305.75
  Q 1580.25 305.75 1604.58 305.75
  C 1620.53 305.75 1624.86 313.86 1622.99 328.84
  C 1622.09 336.03 1617.71 340.29 1610.56 340.90
  A 0.47 0.47 0.0 0 0 1610.26 341.69
  L 1625.74 358.04
  A 0.69 0.69 0.0 0 1 1625.29 359.20
  C 1622.19 359.44 1611.89 360.49 1609.78 358.21
  Q 1602.78 350.64 1596.01 342.89
  A 1.14 1.10 -20.1 0 0 1595.17 342.52
  L 1566.76 342.49
  A 0.51 0.51 0.0 0 0 1566.25 343.00
  Z
  M 1608.50 329.92
  C 1610.54 326.32 1610.05 316.30 1603.69 316.28
  Q 1585.23 316.22 1566.76 316.27
  A 0.51 0.51 0.0 0 0 1566.25 316.78
  L 1566.25 332.72
  A 0.51 0.50 0.6 0 0 1566.75 333.22
  Q 1584.51 333.32 1602.23 333.15
  Q 1606.69 333.11 1608.50 329.92
  Z"
/>
<path d="
  M 1636.44 333.56
  C 1631.75 329.81 1632.50 323.66 1632.47 318.42
  C 1632.43 310.75 1638.12 305.92 1645.70 305.86
  Q 1671.50 305.64 1697.40 305.79
  A 1.09 1.09 0.0 0 1 1698.49 306.88
  L 1698.48 314.95
  A 1.30 1.30 0.0 0 1 1697.18 316.25
  Q 1674.33 316.25 1651.00 316.26
  C 1644.50 316.26 1644.53 327.49 1650.75 327.55
  Q 1667.71 327.71 1684.66 327.78
  C 1691.43 327.81 1696.61 328.74 1699.61 334.75
  C 1701.25 338.04 1701.50 348.61 1699.80 352.07
  Q 1696.41 358.96 1687.74 359.16
  Q 1661.30 359.75 1634.10 359.40
  A 1.62 1.62 0.0 0 1 1632.50 357.78
  L 1632.50 350.21
  A 1.46 1.46 0.0 0 1 1633.96 348.75
  Q 1659.11 348.76 1684.19 348.74
  C 1687.63 348.73 1688.95 337.01 1682.94 337.01
  Q 1667.47 337.03 1652.00 336.96
  C 1645.30 336.93 1640.87 337.11 1636.44 333.56
  Z"
/>
</g>
</svg>
